src/next/cmd/sc_formatobjectmenu.svg

<svg height="16" width="16" xmlns="http://www.w3.org/2000/svg" xmlns:xlink="http://www.w3.org/1999/xlink"><linearGradient id="a" gradientUnits="userSpaceOnUse" x1="102.30765" x2="106.01008" y1="39.141762" y2="209.45338"><stop offset="0" stop-color="#99999c"/><stop offset=".5" stop-color="#9c9ca1"/><stop offset="1" stop-color="#cdcdd1"/></linearGradient><linearGradient id="b" gradientUnits="userSpaceOnUse" x1="78.610847" x2="120.3435" y1="88.852417" y2="111.54715"><stop offset="0" stop-color="#fff"/><stop offset="1" stop-color="#ccc"/></linearGradient><linearGradient id="c" gradientUnits="userSpaceOnUse" x1="88.38102" x2="130.48599" y1="1008.9966" y2="1015.6953"><stop offset="0" stop-color="#7b7b7b"/><stop offset="1" stop-color="#797979" stop-opacity="0"/></linearGradient><clipPath id="d"><path d="m41.355614 933.74432h83.943996v117.52168h-83.943996z"/></clipPath><filter id="e" color-interpolation-filters="sRGB" height="1.073732" width="1.13754" x="-.06877" y="-.036866"><feGaussianBlur stdDeviation="1.0557314"/></filter><linearGradient id="f" gradientUnits="userSpaceOnUse" x1="98.40847" x2="115.25523" y1="30.758501" y2="77.140503"><stop offset="0" stop-color="#fff" stop-opacity=".683453"/><stop offset="1" stop-color="#fff" stop-opacity="0"/></linearGradient><linearGradient id="g" gradientTransform="matrix(.58291629 0 0 .66676377 62.177025 -566.68964)" gradientUnits="userSpaceOnUse" x1="63.011921" x2="63.011921" y1="945.89801" y2="1033.1569"><stop offset="0" stop-color="#545454" stop-opacity=".988"/><stop offset="1" stop-color="#ebebeb"/></linearGradient><linearGradient id="h" gradientTransform="matrix(.48045402 0 0 .66178602 128.73476 -578.51587)" gradientUnits="userSpaceOnUse" x1="-60.535713" x2="-60.357143" y1="979.50507" y2="1009.505"><stop offset="0" stop-color="#979797"/><stop offset=".148461" stop-color="#f6f6f6"/><stop offset=".28399727" stop-color="#e2e2e2"/><stop offset=".41198727" stop-color="#dedede"/><stop offset=".41198727" stop-color="#f6f6f6"/><stop offset="1" stop-color="#6b6b6b"/></linearGradient><linearGradient id="i" gradientTransform="matrix(.480454 0 0 .58309338 128.76683 499.76645)" gradientUnits="userSpaceOnUse" x1="-61.078979" x2="-60.6413" y1="-1056.658" y2="-1010.9131"><stop offset="0" stop-color="#777"/><stop offset=".18176934" stop-color="#a8a8a8"/><stop offset=".22864534" stop-color="#cdcdcd"/><stop offset=".34561315" stop-color="#f7f7f7"/><stop offset="1" stop-color="#fff"/></linearGradient><linearGradient id="j" gradientTransform="matrix(.01012142 0 0 .01626492 -71.03189 127.18706)" gradientUnits="userSpaceOnUse" x1="399.77466" x2="399.77466" y1="1164.6696" y2="549.06134"><stop offset="0" stop-color="#717174"/><stop offset=".5" stop-color="#9c9ca1"/><stop offset="1" stop-color="#cdcdd1"/></linearGradient><linearGradient id="k" gradientTransform="matrix(.07812501 0 0 .1041667 -70.374995 134.45835)" gradientUnits="userSpaceOnUse" x1="119.57646" x2="15.999996" y1="23.792561" y2="109.6508"><stop offset="0" stop-color="#fff"/><stop offset=".42597079" stop-color="#fff"/><stop offset=".5892781" stop-color="#e5e5e5"/><stop offset=".80219781" stop-color="#eaeaea"/><stop offset="1" stop-color="#eee"/></linearGradient><linearGradient id="l" gradientTransform="matrix(0 -.1872075 -.234375 0 148.62501 -49.538415)" gradientUnits="userSpaceOnUse" x1="102.31124" x2="71.239586" y1="-5.830213" y2="34.666656"><stop offset="0" stop-color="#fff"/><stop offset="1" stop-color="#fff" stop-opacity="0"/></linearGradient><path d="m0 0h16v16h-16z" fill="#e7e7e7" opacity="0"/><g transform="matrix(.8 0 0 .8 -107.90001 57.3)"><rect fill="url(#j)" height="15.000012" opacity=".75" rx=".396846" ry=".461539" transform="matrix(0 1 1 0 0 0)" width="15" x="-70.375" y="136.125"/><g fill-rule="evenodd"><rect fill="url(#k)" height="12.499997" rx=".173085" ry=".208333" transform="matrix(0 1 1 0 0 0)" width="12.5" x="-69.125" y="137.37502"/><path d="m149.87501-64.792906c-2.2097 2.000048-9.59975 5.22046-12.5 6.388461v-5.095555c2.77664-.285394 10.28496-2.521866 12.5-3.75z" fill="url(#l)"/></g></g><g transform="matrix(.13504656 0 0 .13504656 -1.316297 -1.28596)"><path d="m68.985809 46.546616h59.012391v81.453444h-59.012391z" fill="url(#a)"/><path d="m76.390663 53.951469h44.429127v66.643681h-44.429127z" fill="url(#b)"/><path clip-path="url(#d)" d="m92.81509 1029.6319c1.071428 1.4286 10.71429 15.3572 11.78571 13.5715 1.07143-1.7858 26.42857-25.3572 25-26.7858-1.42857-1.4285-33.928567-41.78567-33.928567-41.78567z" fill="url(#c)" fill-rule="evenodd" filter="url(#e)" opacity=".68" transform="matrix(.69309305 0 0 .69309305 41.153912 -600.6251)"/><path d="m72 48v48c14.790777-17.220934 34.04067-23.231931 48-25.4375v-22.5625z" fill="url(#f)" fill-rule="evenodd" transform="matrix(.92560668 0 0 .92560668 9.746984 9.522348)"/><path d="m83.795517 65.058746h29.619413v48.131544h-29.619413z" fill="url(#g)"/><path d="m87.497948 68.761177h22.214562v40.726693h-22.214562z" fill="#535353"/><path d="m91.200371 72.4636h14.809709v14.809709h-14.809709z" fill="url(#h)"/><path d="m91.200371-116.89272h14.809719v29.619408h-14.809719z" fill="url(#i)" transform="scale(1 -1)"/></g></svg>

<?xml version="1.0" encoding="UTF-8" standalone="no"?>
<svg
   xmlns:dc="http://purl.org/dc/elements/1.1/"
   xmlns:cc="http://creativecommons.org/ns#"
   xmlns:rdf="http://www.w3.org/1999/02/22-rdf-syntax-ns#"
   xmlns:svg="http://www.w3.org/2000/svg"
   xmlns="http://www.w3.org/2000/svg"
   xmlns:xlink="http://www.w3.org/1999/xlink"
   xmlns:sodipodi="http://sodipodi.sourceforge.net/DTD/sodipodi-0.dtd"
   xmlns:inkscape="http://www.inkscape.org/namespaces/inkscape"
   height="16"
   width="16"
   version="1.1"
   id="svg69"
   sodipodi:docname="sc_formatobjectmenu.svg"
   inkscape:version="0.92.4 (unknown)"
   inkscape:export-filename="/home/rizmut/Dokumen/Rizmut/Github/libreoffice-style-karasa-jaga/build/next/cmd/sc_formatobjectmenu.png"
   inkscape:export-xdpi="96"
   inkscape:export-ydpi="96">
  <metadata
     id="metadata75">
    <rdf:RDF>
      <cc:Work
         rdf:about="">
        <dc:format>image/svg+xml</dc:format>
        <dc:type
           rdf:resource="http://purl.org/dc/dcmitype/StillImage" />
        <dc:title></dc:title>
      </cc:Work>
    </rdf:RDF>
  </metadata>
  <defs
     id="defs73">
    <linearGradient
       id="b-3"
       gradientUnits="userSpaceOnUse"
       x1="102.30765"
       x2="106.01008"
       y1="39.141762"
       y2="209.45338">
      <stop
         offset="0"
         stop-color="#99999c"
         id="stop1620" />
      <stop
         offset=".5"
         stop-color="#9c9ca1"
         id="stop1622" />
      <stop
         offset="1"
         stop-color="#cdcdd1"
         id="stop1624" />
    </linearGradient>
    <linearGradient
       id="c-6"
       gradientUnits="userSpaceOnUse"
       x1="78.610847"
       x2="120.3435"
       y1="88.852417"
       y2="111.54715">
      <stop
         offset="0"
         stop-color="#fff"
         id="stop1627" />
      <stop
         offset="1"
         stop-color="#ccc"
         id="stop1629" />
    </linearGradient>
    <linearGradient
       id="d-7"
       gradientUnits="userSpaceOnUse"
       x1="88.38102"
       x2="130.48599"
       y1="1008.9966"
       y2="1015.6953">
      <stop
         offset="0"
         stop-color="#7b7b7b"
         id="stop1632" />
      <stop
         offset="1"
         stop-color="#797979"
         stop-opacity="0"
         id="stop1634" />
    </linearGradient>
    <clipPath
       id="e-5">
      <path
         inkscape:connector-curvature="0"
         d="M 41.355614,933.74432 H 125.29961 V 1051.266 H 41.355614 Z"
         id="path1637" />
    </clipPath>
    <filter
       style="color-interpolation-filters:sRGB"
       id="f-3"
       height="1.073732"
       width="1.13754"
       x="-0.068769999"
       y="-0.036866002">
      <feGaussianBlur
         stdDeviation="1.0557314"
         id="feGaussianBlur1640" />
    </filter>
    <linearGradient
       id="g-5"
       gradientUnits="userSpaceOnUse"
       x1="98.40847"
       x2="115.25523"
       y1="30.758501"
       y2="77.140503">
      <stop
         offset="0"
         stop-color="#fff"
         stop-opacity=".683453"
         id="stop1643" />
      <stop
         offset="1"
         stop-color="#fff"
         stop-opacity="0"
         id="stop1645" />
    </linearGradient>
    <linearGradient
       id="h"
       gradientTransform="matrix(0.58291629,0,0,0.66676377,62.177025,-566.68964)"
       gradientUnits="userSpaceOnUse"
       x1="63.011921"
       x2="63.011921"
       y1="945.89801"
       y2="1033.1569">
      <stop
         offset="0"
         stop-color="#545454"
         stop-opacity=".988"
         id="stop1648" />
      <stop
         offset="1"
         stop-color="#ebebeb"
         id="stop1650" />
    </linearGradient>
    <linearGradient
       id="i"
       gradientTransform="matrix(0.48045402,0,0,0.66178602,128.73476,-578.51587)"
       gradientUnits="userSpaceOnUse"
       x1="-60.535713"
       x2="-60.357143"
       y1="979.50507"
       y2="1009.505">
      <stop
         offset="0"
         stop-color="#979797"
         id="stop1653" />
      <stop
         offset=".148461"
         stop-color="#f6f6f6"
         id="stop1655" />
      <stop
         offset=".28399727"
         stop-color="#e2e2e2"
         id="stop1657" />
      <stop
         offset=".41198727"
         stop-color="#dedede"
         id="stop1659" />
      <stop
         offset=".41198727"
         stop-color="#f6f6f6"
         id="stop1661" />
      <stop
         offset="1"
         stop-color="#6b6b6b"
         id="stop1663" />
    </linearGradient>
    <linearGradient
       id="j"
       gradientTransform="matrix(0.480454,0,0,0.58309338,128.76683,499.76645)"
       gradientUnits="userSpaceOnUse"
       x1="-61.078979"
       x2="-60.6413"
       y1="-1056.658"
       y2="-1010.9131">
      <stop
         offset="0"
         stop-color="#777"
         id="stop1666" />
      <stop
         offset=".18176934"
         stop-color="#a8a8a8"
         id="stop1668" />
      <stop
         offset=".22864534"
         stop-color="#cdcdcd"
         id="stop1670" />
      <stop
         offset=".34561315"
         stop-color="#f7f7f7"
         id="stop1672" />
      <stop
         offset="1"
         stop-color="#fff"
         id="stop1674" />
    </linearGradient>
  </defs>
  <sodipodi:namedview
     pagecolor="#ffffff"
     bordercolor="#666666"
     borderopacity="1"
     objecttolerance="10"
     gridtolerance="10"
     guidetolerance="10"
     inkscape:pageopacity="0"
     inkscape:pageshadow="2"
     inkscape:window-width="1366"
     inkscape:window-height="714"
     id="namedview71"
     showgrid="true"
     inkscape:zoom="20.85965"
     inkscape:cx="2.1469122"
     inkscape:cy="8.7347152"
     inkscape:window-x="0"
     inkscape:window-y="28"
     inkscape:window-maximized="1"
     inkscape:current-layer="svg69">
    <inkscape:grid
       type="xygrid"
       id="grid882" />
  </sodipodi:namedview>
  <linearGradient
     id="a">
    <stop
       offset="0"
       stop-color="#717174"
       id="stop2" />
    <stop
       offset=".5"
       stop-color="#9c9ca1"
       id="stop4" />
    <stop
       offset="1"
       stop-color="#cdcdd1"
       id="stop6" />
  </linearGradient>
  <linearGradient
     id="b"
     gradientTransform="matrix(.01012142 0 0 .01626492 -71.03189 127.18706)"
     gradientUnits="userSpaceOnUse"
     x1="399.77466"
     x2="399.77466"
     xlink:href="#a"
     y1="1164.6696"
     y2="549.06134" />
  <linearGradient
     id="c"
     gradientTransform="matrix(.07812501 0 0 .1041667 -70.374995 134.45835)"
     gradientUnits="userSpaceOnUse"
     x1="119.57646"
     x2="15.999996"
     y1="23.792561"
     y2="109.6508">
    <stop
       offset="0"
       stop-color="#fff"
       id="stop10" />
    <stop
       offset=".42597079"
       stop-color="#fff"
       id="stop12" />
    <stop
       offset=".5892781"
       stop-color="#e5e5e5"
       id="stop14" />
    <stop
       offset=".80219781"
       stop-color="#eaeaea"
       id="stop16" />
    <stop
       offset="1"
       stop-color="#eee"
       id="stop18" />
  </linearGradient>
  <linearGradient
     id="d"
     gradientTransform="matrix(0 -.1872075 -.234375 0 148.62501 -49.538415)"
     gradientUnits="userSpaceOnUse"
     x1="102.31124"
     x2="71.239586"
     y1="-5.830213"
     y2="34.666656">
    <stop
       offset="0"
       stop-color="#fff"
       id="stop21" />
    <stop
       offset="1"
       stop-color="#fff"
       stop-opacity="0"
       id="stop23" />
  </linearGradient>
  <linearGradient
     id="e"
     gradientTransform="matrix(.01012141 0 0 .01626492 -71.03189 127.18706)"
     gradientUnits="userSpaceOnUse"
     x1="399.77466"
     x2="399.77466"
     xlink:href="#a"
     y1="1164.6696"
     y2="549.06134" />
  <radialGradient
     id="f"
     cx="-65.375"
     cy="141.125"
     gradientTransform="matrix(.9374998 0 0 .9374995 -4.085953 8.820384)"
     gradientUnits="userSpaceOnUse"
     r="4">
    <stop
       offset="0"
       stop-color="#a9cbfc"
       id="stop27" />
    <stop
       offset="1"
       stop-color="#aecffc"
       id="stop29" />
  </radialGradient>
  <radialGradient
     id="g"
     cx="141.125"
     cy="-65.375"
     gradientTransform="matrix(.9374997 0 0 .934665 8.820357 -4.259942)"
     gradientUnits="userSpaceOnUse"
     r="4">
    <stop
       offset="0"
       stop-color="#8fbcff"
       id="stop32" />
    <stop
       offset="1"
       stop-color="#80b3ff"
       id="stop34" />
  </radialGradient>
  <path
     d="m0 0h16v16h-16z"
     fill="#e7e7e7"
     opacity="0"
     id="path37" />
  <g
     transform="matrix(.8 0 0 .8 -107.90001 57.3)"
     id="g57">
    <rect
       height="15.000012"
       rx="0.396846"
       ry="0.461539"
       transform="matrix(0,1,1,0,0,0)"
       width="15"
       x="-70.375"
       y="136.125"
       id="rect49"
       style="opacity:0.75;fill:url(#b)" />
    <g
       fill-rule="evenodd"
       id="g55">
      <rect
         height="12.499997"
         rx="0.173085"
         ry="0.208333"
         transform="matrix(0,1,1,0,0,0)"
         width="12.5"
         x="-69.125"
         y="137.37502"
         id="rect51"
         style="fill:url(#c)" />
      <path
         d="m 149.87501,-64.792906 c -2.2097,2.000048 -9.59975,5.22046 -12.5,6.388461 V -63.5 c 2.77664,-0.285394 10.28496,-2.521866 12.5,-3.75 z"
         id="path53"
         inkscape:connector-curvature="0"
         style="fill:url(#d)"
         sodipodi:nodetypes="ccccc" />
    </g>
  </g>
  <g
     transform="matrix(0.13504656,0,0,0.13504656,-1.316297,-1.2859604)"
     id="g1699">
    <path
       style="fill:url(#b-3)"
       inkscape:connector-curvature="0"
       d="M 68.985809,46.546616 H 127.9982 V 128.00006 H 68.985809 Z"
       id="path1683" />
    <path
       style="fill:url(#c-6)"
       inkscape:connector-curvature="0"
       d="M 76.390663,53.951469 H 120.81979 V 120.59515 H 76.390663 Z"
       id="path1685" />
    <path
       style="opacity:0.68000022;fill:url(#d-7);fill-rule:evenodd;filter:url(#f-3)"
       inkscape:connector-curvature="0"
       clip-path="url(#e-5)"
       d="m 92.81509,1029.6319 c 1.071428,1.4286 10.71429,15.3572 11.78571,13.5715 1.07143,-1.7858 26.42857,-25.3572 25,-26.7858 -1.42857,-1.4285 -33.928567,-41.78567 -33.928567,-41.78567 z"
       transform="matrix(0.69309305,0,0,0.69309305,41.153912,-600.6251)"
       id="path1687" />
    <path
       style="fill:url(#g-5);fill-rule:evenodd"
       inkscape:connector-curvature="0"
       d="M 72,48 V 96 C 86.790777,78.779066 106.04067,72.768069 120,70.5625 V 48 Z"
       transform="matrix(0.92560668,0,0,0.92560668,9.746984,9.522348)"
       id="path1689" />
    <path
       style="fill:url(#h)"
       inkscape:connector-curvature="0"
       d="M 83.795517,65.058746 H 113.41493 V 113.19029 H 83.795517 Z"
       id="path1691" />
    <path
       style="fill:#535353"
       inkscape:connector-curvature="0"
       d="M 87.497948,68.761177 H 109.71251 V 109.48787 H 87.497948 Z"
       id="path1693" />
    <path
       style="fill:url(#i)"
       inkscape:connector-curvature="0"
       d="M 91.200371,72.4636 H 106.01008 V 87.273309 H 91.200371 Z"
       id="path1695" />
    <path
       style="fill:url(#j)"
       inkscape:connector-curvature="0"
       d="m 91.200371,-116.89272 h 14.809719 v 29.619408 H 91.200371 Z"
       transform="scale(1,-1)"
       id="path1697" />
  </g>
</svg>
